Sweet-Rainbow/icons/etcher.svg

<?xml version="1.0" encoding="UTF-8" standalone="no"?>
<!-- Generator: Gravit.io -->

<svg
   xmlns:dc="http://purl.org/dc/elements/1.1/"
   xmlns:cc="http://creativecommons.org/ns#"
   xmlns:rdf="http://www.w3.org/1999/02/22-rdf-syntax-ns#"
   xmlns:svg="http://www.w3.org/2000/svg"
   xmlns="http://www.w3.org/2000/svg"
   xmlns:sodipodi="http://sodipodi.sourceforge.net/DTD/sodipodi-0.dtd"
   xmlns:inkscape="http://www.inkscape.org/namespaces/inkscape"
   style="isolation:isolate"
   viewBox="0 0 36 36"
   width="48"
   height="48"
   version="1.1"
   id="svg13"
   sodipodi:docname="etcher.svg"
   inkscape:version="0.92.4 (5da689c313, 2019-01-14)">
  <metadata
     id="metadata19">
    <rdf:RDF>
      <cc:Work
         rdf:about="">
        <dc:format>image/svg+xml</dc:format>
        <dc:type
           rdf:resource="http://purl.org/dc/dcmitype/StillImage" />
        <dc:title></dc:title>
      </cc:Work>
    </rdf:RDF>
  </metadata>
  <defs
     id="defs17" />
  <sodipodi:namedview
     pagecolor="#ffffff"
     bordercolor="#666666"
     borderopacity="1"
     objecttolerance="10"
     gridtolerance="10"
     guidetolerance="10"
     inkscape:pageopacity="0"
     inkscape:pageshadow="2"
     inkscape:window-width="640"
     inkscape:window-height="480"
     id="namedview15"
     showgrid="false"
     inkscape:zoom="29.365243"
     inkscape:cx="25.325443"
     inkscape:cy="32"
     inkscape:current-layer="svg13"
     units="px" />
  <linearGradient
     id="_lgradient_6"
     x1="0"
     y1="0.5"
     x2="0.99995631"
     y2="0.50934696"
     gradientTransform="matrix(41.259,0,0,43.359,3.37,2.321)"
     gradientUnits="userSpaceOnUse">
    <stop
       offset="34.94098066785295%"
       stop-opacity="1"
       style="stop-color:rgb(178,229,107)"
       id="stop2" />
    <stop
       offset="53.84922244785295%"
       stop-opacity="1"
       style="stop-color:rgb(194,233,100)"
       id="stop4" />
    <stop
       offset="90.40515655585295%"
       stop-opacity="1"
       style="stop-color:rgb(236,244,81)"
       id="stop6" />
    <stop
       offset="100%"
       stop-opacity="1"
       style="stop-color:rgb(250,247,75)"
       id="stop8" />
  </linearGradient>
  <g
     id="g827"
     transform="matrix(0.83028044,0,0,0.83028044,-1.9267843,-1.9267666)">
    <path
       id="path11"
       d="m 24.916,6.228 12.755,6.971 c 0.485,0.264 0.491,0.706 0.015,0.985 l -12.785,7.498 c -0.476,0.28 -1.249,0.28 -1.726,0.002 L 10.332,14.183 C 9.856,13.904 9.862,13.464 10.347,13.2 L 23.161,6.226 c 0.484,-0.263 1.271,-0.263 1.755,0.002 z m 15.693,18.231 v 7.55 c 0,0.552 -0.386,1.228 -0.861,1.509 l -9.828,5.803 c -0.475,0.281 -0.861,0.06 -0.861,-0.492 v -7.54 c 0,-0.552 0.386,-1.228 0.861,-1.509 l 9.828,-5.812 c 0.475,-0.281 0.861,-0.061 0.861,0.491 z m -13.05,-21.343 15.6,8.524 c 1.937,1.059 1.964,2.825 0.06,3.942 l -15.72,9.222 c -1.904,1.117 -4.998,1.12 -6.904,0.007 L 4.783,15.576 C 2.877,14.462 2.903,12.702 4.843,11.647 L 20.535,3.11 c 1.939,-1.055 5.087,-1.052 7.024,0.006 z m 17.05,16.323 v 12.85 c 0,1.656 -1.157,3.684 -2.583,4.526 l -14.384,8.498 c -1.426,0.843 -2.583,0.182 -2.583,-1.474 v -12.83 c 0,-1.655 1.157,-3.684 2.582,-4.528 l 14.386,-8.514 c 1.425,-0.843 2.582,-0.183 2.582,1.472 z m -25.66,11.85 v 7.54 c 0,0.552 -0.386,0.773 -0.861,0.492 L 8.26,33.518 C 7.785,33.237 7.399,32.561 7.399,32.009 v -7.55 c 0,-0.552 0.386,-0.772 0.861,-0.491 l 9.828,5.812 c 0.475,0.281 0.861,0.957 0.861,1.509 z m 4,-0.28 v 12.83 c 0,1.656 -1.157,2.317 -2.583,1.474 L 5.982,36.815 C 4.556,35.973 3.399,33.945 3.399,32.289 v -12.85 c 0,-1.655 1.157,-2.315 2.582,-1.472 l 14.386,8.514 c 1.425,0.844 2.582,2.873 2.582,4.528 z"
       style="fill:url(#_lgradient_6);fill-rule:evenodd"
       inkscape:connector-curvature="0" />
  </g>
</svg>

<?xml version="1.0" encoding="UTF-8" standalone="no"?><!-- Generator: Gravit.io --><svg xmlns="http://www.w3.org/2000/svg" xmlns:xlink="http://www.w3.org/1999/xlink" style="isolation:isolate" viewBox="0 0 48 48" width="48pt" height="48pt"><linearGradient id="_lgradient_6" x1="0" y1="0.5" x2="0.9999563164458355" y2="0.5093469353306884" gradientTransform="matrix(41.259,0,0,43.359,3.37,2.321)" gradientUnits="userSpaceOnUse"><stop offset="34.94098066785295%" stop-opacity="1" style="stop-color:rgb(178,229,107)"/><stop offset="53.84922244785295%" stop-opacity="1" style="stop-color:rgb(194,233,100)"/><stop offset="90.40515655585295%" stop-opacity="1" style="stop-color:rgb(236,244,81)"/><stop offset="100%" stop-opacity="1" style="stop-color:rgb(250,247,75)"/></linearGradient><path d=" M 24.916 6.228 L 37.671 13.199 C 38.156 13.463 38.162 13.905 37.686 14.184 L 24.901 21.682 C 24.425 21.962 23.652 21.962 23.175 21.684 L 10.332 14.183 C 9.856 13.904 9.862 13.464 10.347 13.2 L 23.161 6.226 C 23.645 5.963 24.432 5.963 24.916 6.228 L 24.916 6.228 L 24.916 6.228 Z  M 40.609 24.459 L 40.609 32.009 C 40.609 32.561 40.223 33.237 39.748 33.518 L 29.92 39.321 C 29.445 39.602 29.059 39.381 29.059 38.829 L 29.059 31.289 C 29.059 30.737 29.445 30.061 29.92 29.78 L 39.748 23.968 C 40.223 23.687 40.609 23.907 40.609 24.459 L 40.609 24.459 L 40.609 24.459 Z  M 27.559 3.116 L 43.159 11.64 C 45.096 12.699 45.123 14.465 43.219 15.582 L 27.499 24.804 C 25.595 25.921 22.501 25.924 20.595 24.811 L 4.783 15.576 C 2.877 14.462 2.903 12.702 4.843 11.647 L 20.535 3.11 C 22.474 2.055 25.622 2.058 27.559 3.116 L 27.559 3.116 L 27.559 3.116 Z  M 44.609 19.439 L 44.609 32.289 C 44.609 33.945 43.452 35.973 42.026 36.815 L 27.642 45.313 C 26.216 46.156 25.059 45.495 25.059 43.839 L 25.059 31.009 C 25.059 29.354 26.216 27.325 27.641 26.481 L 42.027 17.967 C 43.452 17.124 44.609 17.784 44.609 19.439 L 44.609 19.439 L 44.609 19.439 Z  M 18.949 31.289 L 18.949 38.829 C 18.949 39.381 18.563 39.602 18.088 39.321 L 8.26 33.518 C 7.785 33.237 7.399 32.561 7.399 32.009 L 7.399 24.459 C 7.399 23.907 7.785 23.687 8.26 23.968 L 18.088 29.78 C 18.563 30.061 18.949 30.737 18.949 31.289 L 18.949 31.289 Z  M 22.949 31.009 L 22.949 43.839 C 22.949 45.495 21.792 46.156 20.366 45.313 L 5.982 36.815 C 4.556 35.973 3.399 33.945 3.399 32.289 L 3.399 19.439 C 3.399 17.784 4.556 17.124 5.981 17.967 L 20.367 26.481 C 21.792 27.325 22.949 29.354 22.949 31.009 L 22.949 31.009 Z " fill-rule="evenodd" fill="url(#_lgradient_6)"/></svg>
